# 05-Option
live_loop :flibble2 do
  use_bpm 30
  
  4.times do
    play chord(:A3, :madd9)
    sleep 0.5
    
    play chord(:A3, :madd9)
    sleep 0.25
    
    play chord(:F3, :maj9)
    sleep 1
    
    play chord(:A3, :madd9)
    sleep 0.25
    
  end
  
  ##| 4.times do
  ##|   play chord(:F3, :maj9)
  ##|   sleep 2
  ##| end
  
end
