# 05-Option
live_loop :flibble2 do
  use_bpm 30
  
  1.times do
    play chord(:A3, :madd9), amp: 0.8
    sleep 1.75
    
    play chord(:A3, :madd9), amp: 0.8
    sleep 1.25
    
    play chord(:F3, :maj9), amp: 0.8
    sleep 1.75
    
    play chord(:A3, :madd9), amp: 0.8
    sleep 1.25
    
  end
  
  ##| 4.times do
  ##|   play chord(:F3, :maj9), amp: 0.8
  ##|   sleep 1
  ##| end
  
end
