# 05-Option
live_loop :flibble2 do
  use_bpm 120
  
  sample :bd_haus, rate: 0.2, amp: 0.3
  sleep rrand(0.1, 0.5)
  
  ##| sample :bd_haus, rate: 0.2, amp: 0.2
  ##| sleep 0.25/2
  
  ##| sample :bd_haus, rate: 0.2, amp: 0.3
  ##| sleep 0.25/2
  
  ##| sample :bd_haus, rate: 0.2, amp: 0.5
  ##| sleep 0.25/2
  
end