# Basic

use_bpm 120

##| play :c4, attack: 2
##| sleep 3
##| play :e4, attack: 2
##| sleep 3
##| play :g4, attack: 2

##| play chord(:c4, :add9), attack: 2

##| play_pattern_timed chord(:c3, :m11), 1

##| play_pattern_timed scale(:c3, :minor_pentatonic), 0.5

##| play_pattern_timed chord(:e3, :m9), 1

play_pattern_timed scale(:c3, :m11).shuffle, 1
