# 05- on Main
live_loop :flibble3 do
  ##| use_bpm 30
  
  ##| 1.times do
  ##|   play chord(:F3, :maj9), amp: 0.7
  ##|   sleep 0.25
    
  ##|   play chord(:F3, :maj9), amp: 0.7
  ##|   sleep 0.75
    
  ##|   stop
    
  ##| end
  
end
