live_loop :flibble3 do
  use_bpm 60
  
  ##| sample :bd_808, rate: 1
  8.times do
    play :A2, amp: 0.8(0.5, 0.8)
    play :A3, amp: rrand(0.2, 0.5)
    
    sleep 0.25*2
  end
  
  8.times do
    play :F2, amp: 0.8(0.5, 0.5)
    play :F3, amp: rrand(0.2, 0.5)
    sleep 0.25*2
  end
  
end