# 04-Syb

live_loop :loopSub  do
  
  use_synth :tb303
  use_bpm 15
  
  play :G3, amp: 0.001
  sleep 0.25
  
  use_synth :fm
  play :C4, amp: 0.05
  play :A5, amp: 0.05
  play :G5, amp: 0.05
  sleep 0.25
  
  stop
end

