##| live_loop :midi_piano do
##|   ##| use_real_time
##|   note, velocity = sync "/midi/nanokey_keyboard/0/1/note_on"
##|   synth :piano, note: note, amp: velocity / 127.0
##| end


live_loop :flibble do
  use_bpm 60
  
  sample :bd_haus, rate: 1
  sleep 0.5
  
  sample :bass_dnb_f, rate: 0.5
  sleep 0.5
  
end