##| #04-Syb

live_loop :loopSub  do
  
  use_synth :tb303
  use_bpm 30
  
  play :E1 , amp: 0.03
  sleep 0.25
  
  use_synth :fm
  play :D3, amp: 0.05
  play :A5, amp: 0.05
  play :G5, amp: 0.05
  sleep 0.5
  ##| stop
end

