# 01-BassDrum

live_loop :flibble do
  use_bpm 60
  
  sample :bd_haus, rate: 0.2, amp: 0.9
  sleep 0.25
  
  sample :bd_haus, rate: 0.2, amp: 0.2
  sleep 0.25
  
  sample :bd_haus, rate: 0.2, amp: 0.9
  sleep 0.25
  
  sample :bd_haus, rate: 0.2, amp: 0.9
  sleep 0.25
  
  
  ##| sample :bass_dnb_f, rate: 0.5
  ##| sleep 0.5
  
end