# 03-Main

live_loop :flibble2 do
  use_bpm 30/2
  
  1.times do
    
    play chord(:A2, :madd9), amp: 0.8
    play :A2, amp: 0.05
    sleep 0.5
    
    play chord(:A3, :m9), amp: 0.7
    sleep 0.25
    
    play chord(:F3, :maj9), amp: 0.7
    sleep 0.25
    
    play chord(:F4, :maj9), amp: 0.7
    play :F2, amp: 0.15
    sleep 0.5
    
    stop
  end
  
  ##| 4.times do
  ##|   play chord(:F3, :maj9), amp: 0.5
  ##|   sleep 1
  ##| end
  
end
