# Basic

use_bpm 120

##| play :c4, attack: 2
##| sleep 3
##| play :e4, attack: 2
##| sleep 3
##| play :g4, attack: 2

##| play chord(:c4, :add9), attack: 2

##| play_pattern_timed chord(:c3, :m11), 1

##| play_pattern_timed scale(:c3, :minor_pentatonic), 0.5

##| play_pattern_timed chord(:e3, :m9), 1

##| live_loop :dev1 do
##|   use_random_seed 1
##|   play_pattern_timed scale(:c3, :diatonic).shuffle, 0.5, attack: 1, amp: 0.7
##|   sleep 1
##| end


    puts rand(10)
