# Basic

use_bpm 180

##| play :c4, attack: 2
##| sleep 3
##| play :e4, attack: 2
##| sleep 3
##| play :g4, attack: 2

##| play chord(:c4, :add9), attack: 2

play_pattern chord(:c4, :add9), attack: 1
