# 01-BassDrum

live_loop :flibble do
  use_bpm 60
  
  ##| fadein = (ramp *range 2, 2, 0.1))
  kick_cutoffs = range(80, 90, 0.8).mirror
  sample :bd_tek, amp: 0.8, cutoff: kick_cutoffs.look
  sleep 0.5
  ##| stop
end

