# 05-om Main
live_loop :flibble2 do
  use_bpm 30/2
  
  1.times do
    
    play chord(:F3, :maj9), amp: 0.7
    sleep 0.25
    ##| stop
  end
  
  1.times do
    play chord(:F3, :maj9), amp: 0.5
    sleep 1
  end
  
end
