# Welcome to Sonic Pi v3.1

live_loop :midi_piano do
  use_real_time
  ##| use_sched_ahead_time 0.5
  set_sched_ahead_time 0.3
  note, velocity = sync "/midi/nanokey_keyboard/0/1/note_on"
  synth :piano, note: note, amp: velocity / 127.0
  
  sample :ambi_choir, rate: 0.272, amp: 0.23
end
