# 04-Syb

live_loop :loopSub  do
  
  use_synth :fm
  use_bpm 30
  
  play :G3, amp: 0.5
  sleep 0.25
  
  use_synth :blade
  play :C3, amp: 0.5
 play :A5, amp: 0.5  
  play :C5, amp: 0.5
  sleep 0.25
  
end

