##| #04-Syb

live_loop :loopSub  do
  
  use_synth :tb303
  use_bpm 60
  
  play :G5, amp: 0.02
  sleep 0.25
  
  use_synth :fm
  play :C3, amp: 0.15
  play :A5, amp: 0.25
  play :G5, amp: 0.15
  sleep 0.25
  
end

