05-Option
live_loop :flibble2 do
use_bpm 60

sample :bd_haus, rate: 0.8, amp: 0.1
sleep rrand(0.03, 0.75)

sample :bd_haus, rate: 0.2, amp: 0.2
sleep 0.25/2

sample :bd_haus, rate: 0.2, amp: 0.3
sleep 0.25/2

sample :bd_haus, rate: 0.2, amp: 0.5
sleep 0.25/2

end
