##| #04-Syb

live_loop :loopSub  do
  
  use_synth :tb303
  use_bpm 30
  
  play :G3 , amp: 0.001
  sleep 0.25
  
  use_synth :fm
  play :C3, amp: 0.015
  play :A5, amp: 0.015
  play :G5, amp: 0.015
  sleep 0.25
  ##| stop
end

