# 05-Option
live_loop :flibble2 do
  use_bpm 30
  
  1.times do
    play chord(:A3, :madd9)
    sleep 0.5
    
    play chord(:A3, :m9)
    sleep 0.25
    
    play chord(:F3, :maj9)
    sleep 0.75
    
    play chord(:F3, :madd9)
    sleep 0.5
    
  end
  
  ##| 4.times do
  ##|   play chord(:F3, :maj9), amp: 0.5
  ##|   sleep 1
  ##| end
  
end
