# Welcome to Sonic Pi v3.1

live_loop :midi_piano do
  use_real_time
  use_real_time is equivalent to set_sched_anead_time 0
  note, velocity = sync "/midi/nanokey_keyboard/0/1/note_on"
  synth :piano, note: note, amp: velocity / 127.0
  
  sample :ambi_choir, rate: 0.272, amp: 0.23
end
