# 04-Syb

live_loop :loopSub  do
  
  use_synth :tb303
  use_bpm 30
  
  play :G3, amp: 0.5
  sleep 0.25
  
  use_synth :fm
  play :C3, amp: 0.5
  play :A5, amp: 0.5
  play :G5, amp: 0.5
  sleep 0.25
  
end

