# 02-NoiseDrum

live_loop :noise do
  use_bpm 60
  
  sample :bass_dnb_f, rate: 0.18, amp: 0.15, attack: 0.4
  sleep 1
  
  sample :glitch_bass_g, rate: 0.34, amp: 0.25, attack: 0.5
  sleep 1
  
  ##| stop
end
