live_loop :loop do
  use_synth :fm
  use_bpm 60
  
  play :A3
  sleep 0.25
  play :A3
  sleep 0.5
  
  use_synth :blade
  play :C3
  sleep 0.25
  
  play :E4
  sleep 0.5
end

live_loop :loop do
  use_synth :fm
  use_bpm 120
  
  play :A3
  sleep 0.25
  play :A3
  sleep 0.5
  
  use_synth :blade
  play :C3
  sleep 0.25
  
  play :E4
  sleep 0.5
end
