live_loop :flibble do
  sample :ambi_choir, rate: 0.328
  sample :bd_haus, rate: 0.5
  sleep 0.2
  sample :ambi_choir, rate: 0.25
  sample :bd_haus, rate: 0.5
  sleep 0.5 / 3
  sample :ambi_choir, rate: 0.2
  sample :bd_haus, rate: 2
  sleep 0.25 / 2
  sample :ambi_choir, rate: 0.2
  sample :bd_haus, rate: 2
  sleep 0.5
  sample :ambi_choir, rate: 0.2
  sample :bd_haus, rate: 2
  sleep 0.25 / 2.5
end