##| #04-Syb

live_loop :loopSub  do
  
  use_synth :tb303
  use_bpm 30
  
  play :G3 , amp: 0.04
  sleep 0.25
  
  use_synth :fm
  play :C3, amp: 0.03
  play :A5, amp: 0.03
  play :G5, amp: 0.03
  sleep 0.25
  ##| stop
end

